X:1293
T:Bec a bec (F. Paris)
M:3/4
L:1/8
K:G
B2 Bc BA|G2 E2 FG|A2- AB cA|BA GF ED|\
B2 Bc BA|G2 E2 FG|AB cA FD|1G2- GD ED:|2G4Bc||
BA G2 Bc|BA G2 d2|c2 Ac Ac|BA G2 Bc|\
BA G2 Bc|BA G2 d2|c2 Ac AF|1G4Bc:|2G6||


